Newaita-dark/mimetypes/64/payment-card-diners-club.svg

<svg height="64pt" viewBox="0 0 64 64" width="64pt" xmlns="http://www.w3.org/2000/svg" xmlns:xlink="http://www.w3.org/1999/xlink"><linearGradient id="a" gradientUnits="userSpaceOnUse" x1="33.076089" x2="33.076089" y1="52.098742" y2="54.74482975004"><stop offset="0" stop-opacity=".27451"/><stop offset="1" stop-opacity="0"/></linearGradient><linearGradient id="b"><stop offset="0" stop-opacity=".313725"/><stop offset=".222222" stop-opacity=".27451"/><stop offset="1" stop-opacity="0"/></linearGradient><radialGradient id="c" cx="450.90894" cy="189.57936" gradientTransform="matrix(.00000035 -.156265 -.281277 -.0000002 106.907387 123.22154)" gradientUnits="userSpaceOnUse" r="21.166656" xlink:href="#b"/><radialGradient id="d" cx="450.90894" cy="189.57936" gradientTransform="matrix(-.00000035 .156265 .281277 .0000002 -43.401323 -19.024086)" gradientUnits="userSpaceOnUse" r="21.166656" xlink:href="#b"/><radialGradient id="e" cx="450.90894" cy="189.57936" gradientTransform="matrix(-.00000035 -.156265 .281277 -.0000002 -43.401323 123.22154)" gradientUnits="userSpaceOnUse" r="21.166656" xlink:href="#b"/><radialGradient id="f" cx="450.90894" cy="189.57936" gradientTransform="matrix(.00000035 .156265 -.281277 .0000002 106.907383 -19.024088)" gradientUnits="userSpaceOnUse" r="21.166656" xlink:href="#b"/><linearGradient id="g" gradientUnits="userSpaceOnUse" x1="31.753048" x2="31.753048" y1="61.36004350008" y2="3.14612175004"><stop offset="0" stop-color="#bdbdbd"/><stop offset="1" stop-color="#e0e0e0"/></linearGradient><linearGradient id="h" gradientUnits="userSpaceOnUse" x1="960" x2="960" y1="1575.1182" y2="375.1181"><stop offset="0" stop-color="#42a5f5"/><stop offset="1" stop-color="#64b5f6"/></linearGradient><path d="m9.261719 52.097656h44.984375v2.648438h-44.984375zm0 0" fill="url(#a)"/><path d="m54.246094 52.097656h5.289062v-2.644531h-5.289062zm0 0" fill="url(#c)"/><path d="m9.261719 52.097656h-5.292969v2.648438h5.292969zm0 0" fill="url(#d)"/><path d="m9.261719 52.097656h-5.292969v-2.644531h5.292969zm0 0" fill="url(#e)"/><path d="m54.246094 52.097656h5.289062v2.648438h-5.289062zm0 0" fill="url(#f)"/><path d="m7.9375 12.40625h47.628906c1.460938 0 2.648438 1.1875 2.648438 2.648438v34.398437c0 1.460937-1.1875 2.644531-2.648438 2.644531h-47.628906c-1.460938 0-2.644531-1.183594-2.644531-2.644531v-34.398437c0-1.460938 1.183593-2.648438 2.644531-2.648438zm0 0" fill="url(#g)"/><path d="m7.9375 12.40625c-1.464844 0-2.644531 1.179688-2.644531 2.648438v.660156c0-1.464844 1.179687-2.644532 2.644531-2.644532h47.628906c1.46875 0 2.648438 1.179688 2.648438 2.644532v-.660156c0-1.46875-1.179688-2.648438-2.648438-2.648438zm0 0" fill="#fff" fill-opacity=".588235"/><path d="m5.292969 48.8125v.640625c0 1.464844 1.179687 2.644531 2.644531 2.644531h47.628906c1.46875 0 2.648438-1.179687 2.648438-2.644531v-.640625c0 1.46875-1.179688 2.648438-2.648438 2.648438h-47.628906c-1.464844 0-2.644531-1.179688-2.644531-2.648438zm0 0" fill-opacity=".235294"/><g stroke="#212121" stroke-linecap="round" stroke-linejoin="round"><path d="m63.493937-115.759477h380.994866c11.686384 0 21.185477 9.499093 21.185477 21.185477v275.161223c0 11.686384-9.499093 21.15423-21.185477 21.15423h-380.994866c-11.686384 0-21.15423-9.467846-21.15423-21.15423v-275.161223c0-11.686384 9.467846-21.185477 21.15423-21.185477zm0 0" fill="none" stroke-width="3" transform="matrix(.125012 0 0 .125012 0 26.877566)"/><path d="m960.026444 655.09493c-177.266538 0-320.048181 142.781643-320.048181 320.048181 0 177.266539 142.781643 319.930082 320.048181 319.930082 177.266539 0 319.930083-142.663543 319.930083-319.930082 0-177.266538-142.663544-320.048181-319.930083-320.048181zm-100.029819 101.683205v436.729953c-82.78737-37.791667-139.947267-121.169533-139.947267-218.364977s57.159897-180.573309 139.947267-218.364976zm200.059638 0c82.669272 37.791667 139.947268 121.169532 139.947268 218.364976s-57.277996 180.57331-139.947268 218.364977zm0 0" fill="url(#h)" stroke-width="11.338583" transform="scale(.0330761)"/></g></svg>

<?xml version="1.0" encoding="UTF-8"?>
<svg xmlns="http://www.w3.org/2000/svg" xmlns:xlink="http://www.w3.org/1999/xlink" width="64pt" height="64pt" viewBox="0 0 64 64" version="1.1">
<defs>
<linearGradient id="linear0" gradientUnits="userSpaceOnUse" x1="254" y1="233.5" x2="254" y2="254.66667" gradientTransform="matrix(0.125012,0,0,0.125012,1.323041,22.90844)">
<stop offset="0" style="stop-color:rgb(0%,0%,0%);stop-opacity:0.27451;"/>
<stop offset="1" style="stop-color:rgb(0%,0%,0%);stop-opacity:0;"/>
</linearGradient>
<radialGradient id="radial0" gradientUnits="userSpaceOnUse" cx="450.90894" cy="189.57936" fx="450.90894" fy="189.57936" r="21.166656" gradientTransform="matrix(0.000000348341,-0.156265,-0.281277,-0.000000203077,106.907387,123.22154)">
<stop offset="0" style="stop-color:rgb(0%,0%,0%);stop-opacity:0.313725;"/>
<stop offset="0.222222" style="stop-color:rgb(0%,0%,0%);stop-opacity:0.27451;"/>
<stop offset="1" style="stop-color:rgb(0%,0%,0%);stop-opacity:0;"/>
</radialGradient>
<radialGradient id="radial1" gradientUnits="userSpaceOnUse" cx="450.90894" cy="189.57936" fx="450.90894" fy="189.57936" r="21.166656" gradientTransform="matrix(-0.000000348341,0.156265,0.281277,0.000000203077,-43.401323,-19.024086)">
<stop offset="0" style="stop-color:rgb(0%,0%,0%);stop-opacity:0.313725;"/>
<stop offset="0.222222" style="stop-color:rgb(0%,0%,0%);stop-opacity:0.27451;"/>
<stop offset="1" style="stop-color:rgb(0%,0%,0%);stop-opacity:0;"/>
</radialGradient>
<radialGradient id="radial2" gradientUnits="userSpaceOnUse" cx="450.90894" cy="189.57936" fx="450.90894" fy="189.57936" r="21.166656" gradientTransform="matrix(-0.000000348341,-0.156265,0.281277,-0.000000203077,-43.401323,123.22154)">
<stop offset="0" style="stop-color:rgb(0%,0%,0%);stop-opacity:0.313725;"/>
<stop offset="0.222222" style="stop-color:rgb(0%,0%,0%);stop-opacity:0.27451;"/>
<stop offset="1" style="stop-color:rgb(0%,0%,0%);stop-opacity:0;"/>
</radialGradient>
<radialGradient id="radial3" gradientUnits="userSpaceOnUse" cx="450.90894" cy="189.57936" fx="450.90894" fy="189.57936" r="21.166656" gradientTransform="matrix(0.000000348341,0.156265,-0.281277,0.000000203077,106.907383,-19.024088)">
<stop offset="0" style="stop-color:rgb(0%,0%,0%);stop-opacity:0.313725;"/>
<stop offset="0.222222" style="stop-color:rgb(0%,0%,0%);stop-opacity:0.27451;"/>
<stop offset="1" style="stop-color:rgb(0%,0%,0%);stop-opacity:0;"/>
</radialGradient>
<linearGradient id="linear1" gradientUnits="userSpaceOnUse" x1="254" y1="275.83334" x2="254" y2="-189.83333" gradientTransform="matrix(0.125012,0,0,0.125012,0,26.877566)">
<stop offset="0" style="stop-color:rgb(74.117647%,74.117647%,74.117647%);stop-opacity:1;"/>
<stop offset="1" style="stop-color:rgb(87.843137%,87.843137%,87.843137%);stop-opacity:1;"/>
</linearGradient>
<linearGradient id="linear2" gradientUnits="userSpaceOnUse" x1="960" y1="1575.1182" x2="960" y2="375.1181" >
<stop offset="0" style="stop-color:rgb(25.882353%,64.705882%,96.078431%);stop-opacity:1;"/>
<stop offset="1" style="stop-color:rgb(39.215686%,70.980392%,96.470588%);stop-opacity:1;"/>
</linearGradient>
</defs>
<g id="surface1">
<path style=" stroke:none;fill-rule:nonzero;fill:url(#linear0);" d="M 9.261719 52.097656 L 54.246094 52.097656 L 54.246094 54.746094 L 9.261719 54.746094 Z M 9.261719 52.097656 "/>
<path style=" stroke:none;fill-rule:nonzero;fill:url(#radial0);" d="M 54.246094 52.097656 L 59.535156 52.097656 L 59.535156 49.453125 L 54.246094 49.453125 Z M 54.246094 52.097656 "/>
<path style=" stroke:none;fill-rule:nonzero;fill:url(#radial1);" d="M 9.261719 52.097656 L 3.96875 52.097656 L 3.96875 54.746094 L 9.261719 54.746094 Z M 9.261719 52.097656 "/>
<path style=" stroke:none;fill-rule:nonzero;fill:url(#radial2);" d="M 9.261719 52.097656 L 3.96875 52.097656 L 3.96875 49.453125 L 9.261719 49.453125 Z M 9.261719 52.097656 "/>
<path style=" stroke:none;fill-rule:nonzero;fill:url(#radial3);" d="M 54.246094 52.097656 L 59.535156 52.097656 L 59.535156 54.746094 L 54.246094 54.746094 Z M 54.246094 52.097656 "/>
<path style=" stroke:none;fill-rule:nonzero;fill:url(#linear1);" d="M 7.9375 12.40625 L 55.566406 12.40625 C 57.027344 12.40625 58.214844 13.59375 58.214844 15.054688 L 58.214844 49.453125 C 58.214844 50.914062 57.027344 52.097656 55.566406 52.097656 L 7.9375 52.097656 C 6.476562 52.097656 5.292969 50.914062 5.292969 49.453125 L 5.292969 15.054688 C 5.292969 13.59375 6.476562 12.40625 7.9375 12.40625 Z M 7.9375 12.40625 "/>
<path style=" stroke:none;fill-rule:nonzero;fill:rgb(100%,100%,100%);fill-opacity:0.588235;" d="M 7.9375 12.40625 C 6.472656 12.40625 5.292969 13.585938 5.292969 15.054688 L 5.292969 15.714844 C 5.292969 14.25 6.472656 13.070312 7.9375 13.070312 L 55.566406 13.070312 C 57.035156 13.070312 58.214844 14.25 58.214844 15.714844 L 58.214844 15.054688 C 58.214844 13.585938 57.035156 12.40625 55.566406 12.40625 Z M 7.9375 12.40625 "/>
<path style=" stroke:none;fill-rule:nonzero;fill:rgb(0%,0%,0%);fill-opacity:0.235294;" d="M 5.292969 48.8125 L 5.292969 49.453125 C 5.292969 50.917969 6.472656 52.097656 7.9375 52.097656 L 55.566406 52.097656 C 57.035156 52.097656 58.214844 50.917969 58.214844 49.453125 L 58.214844 48.8125 C 58.214844 50.28125 57.035156 51.460938 55.566406 51.460938 L 7.9375 51.460938 C 6.472656 51.460938 5.292969 50.28125 5.292969 48.8125 Z M 5.292969 48.8125 "/>
<path style="fill:none;stroke-width:3;stroke-linecap:round;stroke-linejoin:round;stroke:rgb(12.941176%,12.941176%,12.941176%);stroke-opacity:1;stroke-miterlimit:4;" d="M 63.493937 -115.759477 L 444.488803 -115.759477 C 456.175187 -115.759477 465.67428 -106.260384 465.67428 -94.574 L 465.67428 180.587223 C 465.67428 192.273607 456.175187 201.741453 444.488803 201.741453 L 63.493937 201.741453 C 51.807553 201.741453 42.339707 192.273607 42.339707 180.587223 L 42.339707 -94.574 C 42.339707 -106.260384 51.807553 -115.759477 63.493937 -115.759477 Z M 63.493937 -115.759477 " transform="matrix(0.125012,0,0,0.125012,0,26.877566)"/>
<path style="fill-rule:nonzero;fill:url(#linear2);stroke-width:11.338583;stroke-linecap:round;stroke-linejoin:round;stroke:rgb(12.941176%,12.941176%,12.941176%);stroke-opacity:1;stroke-miterlimit:4;" d="M 960.026444 655.09493 C 782.759906 655.09493 639.978263 797.876573 639.978263 975.143111 C 639.978263 1152.40965 782.759906 1295.073193 960.026444 1295.073193 C 1137.292983 1295.073193 1279.956527 1152.40965 1279.956527 975.143111 C 1279.956527 797.876573 1137.292983 655.09493 960.026444 655.09493 Z M 859.996625 756.778135 L 859.996625 1193.508088 C 777.209255 1155.716421 720.049358 1072.338555 720.049358 975.143111 C 720.049358 877.947667 777.209255 794.569802 859.996625 756.778135 Z M 1060.056263 756.778135 C 1142.725535 794.569802 1200.003531 877.947667 1200.003531 975.143111 C 1200.003531 1072.338555 1142.725535 1155.716421 1060.056263 1193.508088 Z M 1060.056263 756.778135 " transform="matrix(0.0330761,0,0,0.0330761,0,0)"/>
</g>
</svg>
